X: 13387
T: Fleur De Mandragore
R: reel
M: 4/4
K: Gmajor
D2GD FGAB|Gddc BGGE|D2GD FGA2|
~A3c BGGE|D2GD FGAB|Gddc BGGE|
D2GD FGA2|1 ~A3c BGGE:|2 ~A3c BGGA GABd||
g3 g3 (3gfg|aGgG fGdG|cedc BGAB|cdeg gfed|
g3 g3 (3gfg|aGgG fGdG|cedc BGAB|cBAB AGG2:|

